assets/post/images/constellation1.svg

<svg xmlns="http://www.w3.org/2000/svg" width="1195" height="1108" overflow="hidden"><defs><clipPath id="a"><path d="M88 20h1195v1108H88z"/></clipPath></defs><g clip-path="url(#a)" transform="translate(-88 -20)"><path fill="#fdefe8" fill-rule="evenodd" d="M171 577c0-263.44 213.336-477 476.5-477S1124 313.56 1124 577s-213.336 477-476.5 477S171 840.44 171 577"/><path fill="none" stroke="#000" stroke-miterlimit="8" stroke-width="9.167" d="M88.5 577.5h1189.37M647.5 1127.94V24.5"/><path fill="#d74514" fill-rule="evenodd" d="M937 226c0-24.301 19.476-44 43.5-44 24.02 0 43.5 19.699 43.5 44s-19.48 44-43.5 44c-24.024 0-43.5-19.7-43.5-44"/><path fill="none" stroke="#d74514" stroke-miterlimit="8" stroke-width="9.167" d="M647.5 577.492 949.911 257.5"/><text fill="#d74514" font-family="Microsoft YaHei,Microsoft YaHei_MSFontService,sans-serif" font-size="55" font-weight="400" transform="rotate(-46.93 873.585 -571.325)">magnitude</text><path fill="#5d1709" d="m779.864 577.191.875-12.938-.01.264.125-12.75.008.32-.375-6.25.033.334-.813-6.062.065.37-1.312-6 .134.484-1.938-5.75.173.437-2.563-5.625.602.975-3.315-4.116 7.138-5.75 3.678 4.565 2.899 6.365 2.093 6.211 1.407 6.429.859 6.416.395 6.578-.128 13.042-.884 13.069ZM760.575 536.3 748.5 486.5l47.085 20.22Z"/><path fill="#5d1709" fill-rule="evenodd" d="M841.172 505.169q-14.151.606-14.151 13.189 0 6.63 3.333 9.837 3.332 3.209 10.818 3.351Zm6.416-.107v26.377q14.151-.464 14.151-13.26 0-13.045-14.151-13.117m-10.587-10.836h14.757v1.747q-2.317.534-3.244 1.497-.926.962-.926 4.669h.035q9.482 0 15.381 3.689t5.899 11.496q0 8.056-5.168 12.226t-16.147 4.848v.178q0 3.636.748 4.776.749 1.142 3.422 1.782v1.747h-14.757v-1.747q2.71-.64 3.44-1.782.73-1.14.731-4.776v-.143q-10.551-.285-15.933-4.01-5.383-3.725-5.383-11.531 0-15.719 21.316-16.681 0-3.778-.927-4.759-.927-.98-3.244-1.479Z"/><text x="819.856" y="536.799" fill-opacity="0" font-family="Arial,Arial_MSFontService,sans-serif" font-size="48.655">Φ</text><path fill="#5d1709" fill-rule="evenodd" d="M1169.48 492.799c-1.64 0-3.01.487-4.12 1.461q-1.65 1.461-2.67 4.206t-1.44 6.683c-.29 2.626-.43 5.591-.43 8.894q0 11.62 2.16 17.056c1.43 3.623 3.66 5.435 6.68 5.435 2.88 0 5.01-1.705 6.4-5.115s2.08-8.691 2.08-15.844c0-5.465-.35-9.891-1.07-13.277q-1.065-5.079-2.97-7.29-1.905-2.21-4.62-2.209m.18-3.03c5.2 0 9.08 2.008 11.62 6.024q3.81 6.024 3.81 18.214 0 12.618-4.08 19.088c-2.72 4.313-6.69 6.469-11.92 6.469q-7.695 0-11.46-6.059c-2.51-4.04-3.76-10.171-3.76-18.393 0-4.372.39-8.151 1.16-11.335q1.155-4.776 3.24-7.895t5.01-4.616c1.95-.998 4.07-1.497 6.38-1.497"/><text x="1153.87" y="533.34" fill-opacity="0" font-family="Arial,Arial_MSFontService,sans-serif" font-size="49.795">0</text><path fill="#5d1709" fill-rule="evenodd" d="M1203.56 493.298c-1.33 0-2.51.303-3.56.908a6.2 6.2 0 0 0-2.42 2.513c-.57 1.07-.86 2.294-.86 3.672q0 2.067.84 3.689a6.06 6.06 0 0 0 2.42 2.531c1.06.606 2.25.909 3.58.909 1.36 0 2.56-.303 3.62-.909a6.17 6.17 0 0 0 2.44-2.531c.57-1.081.86-2.311.86-3.689s-.29-2.602-.86-3.672a6.2 6.2 0 0 0-2.44-2.513c-1.06-.605-2.26-.908-3.62-.908m.15-3.529c2.04 0 3.86.451 5.47 1.354a9.55 9.55 0 0 1 3.74 3.779c.89 1.615 1.34 3.445 1.34 5.489q0 3.03-1.41 5.471a10.1 10.1 0 0 1-3.9 3.832c-1.67.927-3.53 1.39-5.6 1.39s-3.89-.463-5.47-1.39a9.4 9.4 0 0 1-3.65-3.832q-1.29-2.441-1.29-5.507c0-2.02.46-3.843 1.37-5.471a9.6 9.6 0 0 1 3.84-3.779c1.64-.891 3.49-1.336 5.56-1.336"/><text x="1192.94" y="508.42" fill-opacity="0" font-family="Arial,Arial_MSFontService,sans-serif" font-size="21.315">°</text><path fill-rule="evenodd" d="M1229.27 187.575c6.94 1.83 12.27 5.781 15.98 11.852q5.58 9.108 5.58 21.975c0 8.602-1.85 15.927-5.56 21.975-3.7 6.048-9.04 9.986-16 11.816l-.86-2.744c5.49-1.83 9.57-5.442 12.25-10.836 2.67-5.395 4.01-12.25 4.01-20.567 0-8.032-1.33-14.704-4-20.015q-3.99-7.966-12.36-10.711Zm-152.31 0 .96 2.745c-5.56 1.83-9.67 5.4-12.35 10.711-2.67 5.311-4.01 11.983-4.01 20.015 0 8.317 1.34 15.172 4.01 20.567 2.68 5.394 6.76 9.006 12.25 10.836l-.86 2.744c-6.96-1.83-12.3-5.768-16-11.816-3.71-6.048-5.56-13.373-5.56-21.975 0-8.578 1.86-15.903 5.57-21.975q5.58-9.107 15.99-11.852"/><path fill="#d74514" fill-rule="evenodd" d="M1090.64 207.562c1.5 0 2.68.493 3.55 1.479s1.3 2.276 1.3 3.868c0 1.307-.27 2.697-.82 4.17l.43.143c2.18-3.256 4.36-5.674 6.52-7.254s4.35-2.37 6.56-2.37c2.28 0 4.01.647 5.2 1.942 1.19 1.296 1.79 3.167 1.79 5.614v.499c0 .167-.02.345-.04.535 2.04-2.899 4.08-5.055 6.11-6.469q3.045-2.121 6.33-2.121c2.19 0 3.87.63 5.06 1.889s1.78 3.03 1.78 5.311c0 1.497-.34 3.624-1.03 6.38l-2.32 9.339q-.96 3.885-.96 5.49c0 .95.15 1.639.46 2.067q.465.642 1.47.641 1.065 0 2.28-.873 1.2-.873 3.42-3.333l2.03 1.997c-2.04 2.162-3.83 3.754-5.35 4.776s-3.25 1.533-5.2 1.533c-1.55 0-2.78-.553-3.71-1.658-.92-1.105-1.39-2.513-1.39-4.224 0-1.544.39-3.814 1.18-6.808l1.57-6.166c.57-2.234.94-3.886 1.12-4.955q.27-1.604.27-2.602c0-1.64-.28-2.822-.82-3.547-.55-.724-1.44-1.087-2.68-1.087-.99 0-2.06.375-3.2 1.123q-1.725 1.123-3.6 3.493-1.89 2.37-3.09 4.67c-.79 1.532-1.43 3.404-1.9 5.614l-3.25 15.576h-6.16l4.09-18.107q.75-3.315 1.02-4.901.27-1.587.27-2.727c0-1.711-.31-2.929-.91-3.654-.61-.724-1.55-1.087-2.84-1.087-.9 0-1.93.375-3.08 1.123q-1.725 1.124-3.69 3.6c-1.3 1.652-2.33 3.238-3.06 4.759q-1.11 2.281-1.86 5.56l-3.38 15.434h-6.17l5.2-22.598c.53-2.282.79-4.04.79-5.276 0-.95-.16-1.639-.46-2.067q-.465-.642-1.47-.642c-.73 0-1.51.303-2.33.909s-1.94 1.705-3.37 3.297l-2.03-1.996q3.135-3.279 5.4-4.794a8.76 8.76 0 0 1 4.97-1.515"/><text x="1080.27" y="238.408" fill-opacity="0" font-family="Arial,Arial_MSFontService,sans-serif" font-size="35.252">𝑚</text><path fill-rule="evenodd" d="M1146.75 233.975h6.24c.33 1.663.5 3.303.5 4.919 0 1.663-.29 3.184-.86 4.562s-1.48 2.751-2.72 4.117c-1.25 1.367-2.97 2.87-5.15 4.509l-1.93-2.174q1.815-1.711 2.64-3.083c.55-.915.94-1.955 1.18-3.119.23-1.165.35-2.626.35-4.385 0-1.806-.08-3.588-.25-5.346"/><text x="1142.83" y="249.819" fill-opacity="0" font-family="Arial,Arial_MSFontService,sans-serif" font-size="18.107">,</text><path fill="#5d1709" fill-rule="evenodd" d="M1194.54 204.532c-9.44.404-14.15 4.801-14.15 13.189q0 6.63 3.33 9.838c2.22 2.138 5.83 3.255 10.82 3.35Zm6.41-.107v26.377c9.44-.309 14.15-4.728 14.15-13.259 0-8.698-4.71-13.07-14.15-13.118m-10.58-10.835h14.75v1.746q-2.31.536-3.24 1.497-.93.963-.93 4.67h.04c6.32 0 11.45 1.229 15.38 3.689s5.9 6.291 5.9 11.495c0 5.371-1.72 9.446-5.17 12.226s-8.83 4.396-16.15 4.848v.178q0 3.636.75 4.776.75 1.141 3.42 1.783v1.746h-14.75v-1.746c1.8-.428 2.95-1.022 3.44-1.783.48-.76.73-2.352.73-4.776v-.142c-7.04-.191-12.35-1.527-15.94-4.01-3.58-2.484-5.38-6.327-5.38-11.531 0-10.48 7.11-16.041 21.32-16.682q0-3.778-.93-4.759-.93-.98-3.24-1.479Z"/><text x="1173.22" y="236.162" fill-opacity="0" font-family="Arial,Arial_MSFontService,sans-serif" font-size="48.655">Φ</text></g></svg>

<svg width="1195" height="1108" xmlns="http://www.w3.org/2000/svg" xmlns:xlink="http://www.w3.org/1999/xlink" overflow="hidden"><defs><clipPath id="clip0"><rect x="88" y="20" width="1195" height="1108"/></clipPath></defs><g clip-path="url(#clip0)" transform="translate(-88 -20)"><path d="M171 577C171 313.56 384.336 100 647.5 100 910.664 100 1124 313.56 1124 577 1124 840.44 910.664 1054 647.5 1054 384.336 1054 171 840.44 171 577Z" fill="#FDEFE8" fill-rule="evenodd"/><path d="M88.4998 577.5 1277.87 577.5" stroke="#000000" stroke-width="9.16667" stroke-miterlimit="8" fill="none" fill-rule="evenodd"/><path d="M0 0 0.000360892 1103.44" stroke="#000000" stroke-width="9.16667" stroke-miterlimit="8" fill="none" fill-rule="evenodd" transform="matrix(1 0 0 -1 647.5 1127.94)"/><path d="M937 226C937 201.699 956.476 182 980.5 182 1004.52 182 1024 201.699 1024 226 1024 250.3 1004.52 270 980.5 270 956.476 270 937 250.3 937 226Z" fill="#D74514" fill-rule="evenodd"/><path d="M0 0 302.411 319.992" stroke="#D74514" stroke-width="9.16667" stroke-miterlimit="8" fill="none" fill-rule="evenodd" transform="matrix(1 0 0 -1 647.5 577.492)"/><text fill="#D74514" font-family="Microsoft YaHei,Microsoft YaHei_MSFontService,sans-serif" font-weight="400" font-size="55" transform="matrix(0.682887 -0.730524 0.730524 0.682887 694.392 457)">magnitude</text><path d="M779.864 577.191 780.739 564.253 780.729 564.517 780.854 551.767 780.862 552.087 780.487 545.837 780.52 546.171 779.707 540.109 779.772 540.479 778.46 534.479 778.594 534.963 776.656 529.213 776.829 529.65 774.266 524.025 774.868 525 771.553 520.884 778.691 515.134 782.369 519.699 785.268 526.064 787.361 532.275 788.768 538.704 789.627 545.12 790.022 551.698 789.894 564.74 789.01 577.809ZM760.575 536.3 748.5 486.5 795.585 506.72Z" fill="#5D1709"/><path d="M841.172 505.169C831.738 505.573 827.021 509.969 827.021 518.358 827.021 522.777 828.132 526.057 830.354 528.195 832.575 530.334 836.181 531.451 841.172 531.546ZM847.588 505.062 847.588 531.439C857.022 531.13 861.739 526.71 861.739 518.179 861.739 509.482 857.022 505.11 847.588 505.062ZM837.001 494.226 851.758 494.226 851.758 495.973C850.213 496.329 849.132 496.828 848.514 497.47 847.897 498.111 847.588 499.668 847.588 502.139L847.623 502.139C853.944 502.139 859.071 503.369 863.004 505.828 866.937 508.288 868.903 512.12 868.903 517.324 868.903 522.694 867.18 526.77 863.735 529.55 860.289 532.33 854.907 533.946 847.588 534.398L847.588 534.576C847.588 537 847.837 538.592 848.336 539.352 848.835 540.113 849.976 540.707 851.758 541.134L851.758 542.881 837.001 542.881 837.001 541.134C838.807 540.707 839.954 540.113 840.441 539.352 840.928 538.592 841.172 537 841.172 534.576L841.172 534.433C834.138 534.243 828.827 532.906 825.239 530.423 821.65 527.94 819.856 524.096 819.856 518.892 819.856 508.413 826.961 502.852 841.172 502.211 841.172 499.692 840.863 498.106 840.245 497.452 839.627 496.799 838.546 496.305 837.001 495.973Z" fill="#5D1709" fill-rule="evenodd"/><text fill="#000000" fill-opacity="0" font-family="Arial,Arial_MSFontService,sans-serif" font-size="48.6548" x="819.856" y="536.799">Φ</text><path d="M1169.48 492.799C1167.84 492.799 1166.47 493.286 1165.36 494.26 1164.26 495.234 1163.37 496.636 1162.69 498.466 1162.01 500.296 1161.53 502.524 1161.25 505.149 1160.96 507.775 1160.82 510.74 1160.82 514.043 1160.82 521.789 1161.54 527.475 1162.98 531.099 1164.41 534.722 1166.64 536.534 1169.66 536.534 1172.54 536.534 1174.67 534.829 1176.06 531.419 1177.45 528.009 1178.14 522.728 1178.14 515.575 1178.14 510.11 1177.79 505.684 1177.07 502.298 1176.36 498.912 1175.37 496.482 1174.1 495.008 1172.83 493.535 1171.29 492.799 1169.48 492.799ZM1169.66 489.769C1174.86 489.769 1178.74 491.777 1181.28 495.793 1183.82 499.809 1185.09 505.88 1185.09 514.007 1185.09 522.419 1183.73 528.782 1181.01 533.095 1178.29 537.408 1174.32 539.564 1169.09 539.564 1163.96 539.564 1160.14 537.544 1157.63 533.505 1155.12 529.465 1153.87 523.334 1153.87 515.112 1153.87 510.74 1154.26 506.961 1155.03 503.777 1155.8 500.593 1156.88 497.961 1158.27 495.882 1159.66 493.803 1161.33 492.264 1163.28 491.266 1165.23 490.268 1167.35 489.769 1169.66 489.769Z" fill="#5D1709" fill-rule="evenodd"/><text fill="#000000" fill-opacity="0" font-family="Arial,Arial_MSFontService,sans-serif" font-size="49.7954" x="1153.87" y="533.34">0</text><path d="M1203.56 493.298C1202.23 493.298 1201.05 493.601 1200 494.206 1198.95 494.812 1198.15 495.65 1197.58 496.719 1197.01 497.789 1196.72 499.013 1196.72 500.391 1196.72 501.769 1197 502.999 1197.56 504.08 1198.12 505.161 1198.92 506.005 1199.98 506.611 1201.04 507.217 1202.23 507.52 1203.56 507.52 1204.92 507.52 1206.12 507.217 1207.18 506.611 1208.24 506.005 1209.05 505.161 1209.62 504.08 1210.19 502.999 1210.48 501.769 1210.48 500.391 1210.48 499.013 1210.19 497.789 1209.62 496.719 1209.05 495.65 1208.24 494.812 1207.18 494.206 1206.12 493.601 1204.92 493.298 1203.56 493.298ZM1203.71 489.769C1205.75 489.769 1207.57 490.22 1209.18 491.123 1210.78 492.026 1212.03 493.286 1212.92 494.902 1213.81 496.517 1214.26 498.347 1214.26 500.391 1214.26 502.411 1213.79 504.234 1212.85 505.862 1211.91 507.49 1210.61 508.767 1208.95 509.694 1207.28 510.621 1205.42 511.084 1203.35 511.084 1201.28 511.084 1199.46 510.621 1197.88 509.694 1196.3 508.767 1195.08 507.49 1194.23 505.862 1193.37 504.234 1192.94 502.399 1192.94 500.355 1192.94 498.335 1193.4 496.512 1194.31 494.884 1195.23 493.256 1196.51 491.997 1198.15 491.105 1199.79 490.214 1201.64 489.769 1203.71 489.769Z" fill="#5D1709" fill-rule="evenodd"/><text fill="#000000" fill-opacity="0" font-family="Arial,Arial_MSFontService,sans-serif" font-size="21.3154" x="1192.94" y="508.42">°</text><path d="M1229.27 187.575C1236.21 189.405 1241.54 193.356 1245.25 199.427 1248.97 205.499 1250.83 212.824 1250.83 221.402 1250.83 230.004 1248.98 237.329 1245.27 243.377 1241.57 249.425 1236.23 253.363 1229.27 255.193L1228.41 252.449C1233.9 250.619 1237.98 247.007 1240.66 241.613 1243.33 236.218 1244.67 229.363 1244.67 221.046 1244.67 213.014 1243.34 206.342 1240.67 201.031 1238.01 195.72 1233.89 192.15 1228.31 190.32ZM1076.96 187.575 1077.92 190.32C1072.36 192.15 1068.25 195.72 1065.57 201.031 1062.9 206.342 1061.56 213.014 1061.56 221.046 1061.56 229.363 1062.9 236.218 1065.57 241.613 1068.25 247.007 1072.33 250.619 1077.82 252.449L1076.96 255.193C1070 253.363 1064.66 249.425 1060.96 243.377 1057.25 237.329 1055.4 230.004 1055.4 221.402 1055.4 212.824 1057.26 205.499 1060.97 199.427 1064.69 193.356 1070.02 189.405 1076.96 187.575Z" fill-rule="evenodd"/><path d="M1090.64 207.562C1092.14 207.562 1093.32 208.055 1094.19 209.041 1095.06 210.028 1095.49 211.317 1095.49 212.909 1095.49 214.216 1095.22 215.606 1094.67 217.079L1095.1 217.222C1097.28 213.966 1099.46 211.548 1101.62 209.968 1103.78 208.388 1105.97 207.598 1108.18 207.598 1110.46 207.598 1112.19 208.245 1113.38 209.54 1114.57 210.836 1115.17 212.707 1115.17 215.154L1115.17 215.653C1115.17 215.82 1115.15 215.998 1115.13 216.188 1117.17 213.289 1119.21 211.133 1121.24 209.719 1123.27 208.305 1125.38 207.598 1127.57 207.598 1129.76 207.598 1131.44 208.228 1132.63 209.487 1133.82 210.746 1134.41 212.517 1134.41 214.798 1134.41 216.295 1134.07 218.422 1133.38 221.178L1131.06 230.517C1130.42 233.107 1130.1 234.937 1130.1 236.007 1130.1 236.957 1130.25 237.646 1130.56 238.074 1130.87 238.502 1131.36 238.715 1132.03 238.715 1132.74 238.715 1133.5 238.424 1134.31 237.842 1135.11 237.26 1136.25 236.149 1137.73 234.509L1139.76 236.506C1137.72 238.668 1135.93 240.26 1134.41 241.282 1132.89 242.304 1131.16 242.815 1129.21 242.815 1127.66 242.815 1126.43 242.262 1125.5 241.157 1124.58 240.052 1124.11 238.644 1124.11 236.933 1124.11 235.389 1124.5 233.119 1125.29 230.125L1126.86 223.959C1127.43 221.725 1127.8 220.073 1127.98 219.004 1128.16 217.935 1128.25 217.067 1128.25 216.402 1128.25 214.762 1127.97 213.58 1127.43 212.855 1126.88 212.131 1125.99 211.768 1124.75 211.768 1123.76 211.768 1122.69 212.143 1121.55 212.891 1120.4 213.64 1119.2 214.804 1117.95 216.384 1116.69 217.964 1115.66 219.521 1114.86 221.054 1114.07 222.586 1113.43 224.458 1112.96 226.668L1109.71 242.244 1103.55 242.244 1107.64 224.137C1108.14 221.927 1108.48 220.293 1108.66 219.236 1108.84 218.178 1108.93 217.269 1108.93 216.509 1108.93 214.798 1108.62 213.58 1108.02 212.855 1107.41 212.131 1106.47 211.768 1105.18 211.768 1104.28 211.768 1103.25 212.143 1102.1 212.891 1100.95 213.64 1099.72 214.84 1098.41 216.491 1097.11 218.143 1096.08 219.729 1095.35 221.25 1094.61 222.771 1093.99 224.624 1093.49 226.81L1090.11 242.244 1083.94 242.244 1089.14 219.646C1089.67 217.364 1089.93 215.606 1089.93 214.37 1089.93 213.42 1089.77 212.731 1089.47 212.303 1089.16 211.875 1088.67 211.661 1088 211.661 1087.27 211.661 1086.49 211.964 1085.67 212.57 1084.85 213.176 1083.73 214.275 1082.3 215.867L1080.27 213.871C1082.36 211.685 1084.16 210.087 1085.67 209.077 1087.18 208.067 1088.84 207.562 1090.64 207.562Z" fill="#D74514" fill-rule="evenodd"/><text fill="#000000" fill-opacity="0" font-family="Arial,Arial_MSFontService,sans-serif" font-size="35.2524" x="1080.27" y="238.408">𝑚</text><path d="M1146.75 233.975 1152.99 233.975C1153.32 235.638 1153.49 237.278 1153.49 238.894 1153.49 240.557 1153.2 242.078 1152.63 243.456 1152.06 244.834 1151.15 246.207 1149.91 247.573 1148.66 248.94 1146.94 250.443 1144.76 252.082L1142.83 249.908C1144.04 248.767 1144.92 247.74 1145.47 246.825 1146.02 245.91 1146.41 244.87 1146.65 243.706 1146.88 242.541 1147 241.08 1147 239.321 1147 237.515 1146.92 235.733 1146.75 233.975Z" fill-rule="evenodd"/><text fill="#000000" fill-opacity="0" font-family="Arial,Arial_MSFontService,sans-serif" font-size="18.1074" x="1142.83" y="249.819">,</text><path d="M1194.54 204.532C1185.1 204.936 1180.39 209.333 1180.39 217.721 1180.39 222.141 1181.5 225.42 1183.72 227.559 1185.94 229.697 1189.55 230.814 1194.54 230.909ZM1200.95 204.425 1200.95 230.802C1210.39 230.493 1215.1 226.074 1215.1 217.543 1215.1 208.845 1210.39 204.473 1200.95 204.425ZM1190.37 193.59 1205.12 193.59 1205.12 195.336C1203.58 195.693 1202.5 196.192 1201.88 196.833 1201.26 197.475 1200.95 199.031 1200.95 201.503L1200.99 201.503C1207.31 201.503 1212.44 202.732 1216.37 205.192 1220.3 207.651 1222.27 211.483 1222.27 216.687 1222.27 222.058 1220.55 226.133 1217.1 228.913 1213.65 231.694 1208.27 233.309 1200.95 233.761L1200.95 233.939C1200.95 236.363 1201.2 237.955 1201.7 238.715 1202.2 239.476 1203.34 240.07 1205.12 240.498L1205.12 242.244 1190.37 242.244 1190.37 240.498C1192.17 240.07 1193.32 239.476 1193.81 238.715 1194.29 237.955 1194.54 236.363 1194.54 233.939L1194.54 233.797C1187.5 233.606 1182.19 232.27 1178.6 229.787 1175.02 227.303 1173.22 223.46 1173.22 218.256 1173.22 207.776 1180.33 202.215 1194.54 201.574 1194.54 199.055 1194.23 197.469 1193.61 196.815 1192.99 196.162 1191.91 195.669 1190.37 195.336Z" fill="#5D1709" fill-rule="evenodd"/><text fill="#000000" fill-opacity="0" font-family="Arial,Arial_MSFontService,sans-serif" font-size="48.6548" x="1173.22" y="236.162">Φ</text></g></svg>
